src/img/icons/notifications.svg

<svg width="32" height="32" viewBox="0 0 32 32" fill="none" xmlns="http://www.w3.org/2000/svg">
<path d="M7.9 24.4889C7.645 24.4889 7.4313 24.3991 7.2589 24.2194C7.0863 24.0396 7 23.8166 7 23.5507C7 23.285 7.0863 23.0623 7.2589 22.8826C7.4313 22.7032 7.645 22.6135 7.9 22.6135H9.1693V13.2825C9.1693 11.6008 9.6674 10.1138 10.6636 8.82163C11.6596 7.52945 12.9384 6.70297 14.5 6.3422V5.56313C14.5 5.129 14.6457 4.75989 14.9371 4.45581C15.2285 4.15194 15.5823 4 15.9985 4C16.4149 4 16.7692 4.15194 17.0614 4.45581C17.3538 4.75989 17.5 5.129 17.5 5.56313V6.3422C19.0616 6.70297 20.3404 7.52945 21.3364 8.82163C22.3326 10.1138 22.8307 11.6008 22.8307 13.2825V22.6135H24.1C24.355 22.6135 24.5687 22.7033 24.7411 22.8829C24.9137 23.0628 25 23.2857 25 23.5516C25 23.8174 24.9137 24.0401 24.7411 24.2197C24.5687 24.3992 24.355 24.4889 24.1 24.4889H7.9ZM15.9979 28C15.4009 28 14.8905 27.7787 14.4667 27.336C14.0427 26.8933 13.8307 26.3611 13.8307 25.7394H18.1693C18.1693 26.3632 17.9567 26.8959 17.5315 27.3375C17.1063 27.7792 16.5951 28 15.9979 28ZM10.9693 22.6135H21.0307V13.2825C21.0307 11.8348 20.5396 10.5992 19.5574 9.57569C18.575 8.55194 17.3892 8.04007 16 8.04007C14.6108 8.04007 13.425 8.55194 12.4426 9.57569C11.4604 10.5992 10.9693 11.8348 10.9693 13.2825V22.6135Z" fill="#131212"/>
</svg>

<svg xmlns="http://www.w3.org/2000/svg" viewBox="0 0 32 32">
  <path fill="currentColor" d="M7.9 24.489a.853.853 0 0 1-.641-.27.928.928 0 0 1-.259-.668c0-.266.086-.489.259-.668a.853.853 0 0 1 .641-.27h1.27v-9.33c0-1.682.497-3.17 1.494-4.461.996-1.293 2.274-2.119 3.836-2.48v-.779c0-.434.146-.803.437-1.107A1.416 1.416 0 0 1 16 4c.416 0 .77.152 1.062.456.293.304.439.673.439 1.107v.78c1.562.36 2.84 1.186 3.836 2.479.997 1.292 1.495 2.779 1.495 4.46v9.331H24.1c.255 0 .469.09.641.27.173.18.259.403.259.669a.927.927 0 0 1-.259.668.853.853 0 0 1-.641.269H7.9ZM15.998 28a2.043 2.043 0 0 1-1.531-.664 2.226 2.226 0 0 1-.636-1.597h4.338a2.22 2.22 0 0 1-.637 1.598 2.053 2.053 0 0 1-1.534.663Zm-5.029-5.387h10.062v-9.33c0-1.448-.491-2.684-1.474-3.707C18.575 8.552 17.39 8.04 16 8.04c-1.39 0-2.575.512-3.557 1.536-.983 1.023-1.474 2.259-1.474 3.707v9.33Z"/>
</svg>
